X: 14875
T: Garryowen
R: jig
M: 6/8
K: Adorian
e>dc BAG|B>cB B2 g/f/|e>dc BAG|A>BA A2 g/f/|
e>dc BAG|B>cB B2 c|dd/e/f gdB|A>BA A2:|
d2 B d2 B|d2 B dgf|e2 c e2 c|e2 c e2 f|
g2 a b2 a|gg/f/e d2 B/c/|d>ef gdB|A>BA A2:|

